brandFactory_export/1.Light/Portapapeles_1Light.svg

<?xml version="1.0" encoding="UTF-8"?>
<svg width="24px" height="24px" viewBox="0 0 24 24" version="1.1" xmlns="http://www.w3.org/2000/svg" xmlns:xlink="http://www.w3.org/1999/xlink">
    <title>1.Light/Portapapeles_1Light</title>
    <g id="Symbols" stroke="none" stroke-width="1" fill="none" fill-rule="evenodd">
        <g id="1.Light/Portapapeles_1Light" fill="#5CB615" fill-rule="nonzero">
            <path d="M19.7394958,22.2655462 L19.7394958,3.1092437 C19.7394958,3.01176471 19.4235294,2.71260504 18.9831933,2.71260504 L15.4504202,2.71260504 C15.4638655,2.8302521 15.4840336,2.94453782 15.487395,3.06554622 L15.4941176,3.29411765 L15.4907563,3.40504202 C15.4369748,4.96806723 13.9983193,5.29411765 11.8537815,5.29411765 C9.71260504,5.29411765 8.27394958,4.96806723 8.21680672,3.38487395 L8.21680672,3.15294118 L8.22352941,3.04201681 C8.22689076,2.92436975 8.25042017,2.82352941 8.26722689,2.71260504 L4.72773109,2.71260504 C4.28403361,2.71260504 3.97142857,3.01512605 3.97142857,3.1092437 L3.97142857,22.2655462 C3.97142857,22.4 4.30084034,22.6621849 4.72773109,22.6621849 L18.9798319,22.6621849 C19.410084,22.6621849 19.7394958,22.3966387 19.7394958,22.2655462 Z M11.8537815,0.961344538 C10.1092437,0.961344538 9.26554622,1.64369748 9.19831933,3.1092437 L9.19159664,3.29411765 C9.20840336,3.76470588 9.22857143,4.32941176 11.8571429,4.32941176 C14.4857143,4.32941176 14.5058824,3.76134454 14.5193277,3.34789916 L14.5193277,3.18991597 C14.512605,2.90756303 14.4689076,2.62857143 14.3882353,2.35630252 C14.0857143,1.41848739 13.2588235,0.961344538 11.8537815,0.961344538 Z M18.9798319,1.7512605 C19.887395,1.7512605 20.7142857,2.4 20.7142857,3.1092437 L20.7142857,22.2655462 C20.7142857,23.0016807 19.9210084,23.6235294 18.9831933,23.6235294 L4.73109244,23.6235294 C3.79327731,23.6235294 3,23.0016807 3,22.2655462 L3,3.1092437 C3,2.4 3.82689076,1.7512605 4.73109244,1.7512605 L8.51260504,1.7512605 C9.01344538,0.61512605 10.1630252,0 11.8537815,0 C13.9142857,0 14.8084034,0.887394958 15.1915966,1.7512605 L18.9798319,1.7512605 Z M10.7714286,3.51932773 C10.5058824,3.51932773 10.287395,3.30756303 10.2840336,3.03865546 C10.2840336,2.77310924 10.502521,2.55798319 10.7714286,2.55798319 L12.9327731,2.55798319 C13.2016807,2.55798319 13.4201681,2.77310924 13.4201681,3.03865546 C13.4201681,3.30420168 13.2016807,3.51932773 12.9327731,3.51932773 L10.7714286,3.51932773 Z" id="Portapapeles_1Light"></path>
        </g>
    </g>
</svg>

<svg width="24" height="24" viewBox="0 0 24 24" xmlns="http://www.w3.org/2000/svg"><path d="M19.74 22.266V3.109c0-.097-.316-.396-.757-.396H15.45c.014.117.034.232.037.353l.007.228-.003.111c-.054 1.563-1.493 1.89-3.637 1.89-2.141 0-3.58-.327-3.637-1.91v-.232l.007-.111c.003-.118.026-.218.043-.33h-3.54c-.443 0-.756.303-.756.397v19.157c0 .134.33.396.757.396H18.98c.43 0 .76-.265.76-.396zM11.853.96c-1.745 0-2.588.683-2.656 2.148l-.006.185c.016.47.037 1.035 2.665 1.035 2.629 0 2.649-.568 2.662-.981V3.19a3.195 3.195 0 00-.13-.834c-.303-.938-1.13-1.395-2.535-1.395zm7.126.79c.907 0 1.734.649 1.734 1.358v19.157c0 .736-.793 1.358-1.73 1.358H4.73c-.938 0-1.731-.622-1.731-1.358V3.109c0-.709.827-1.358 1.731-1.358h3.782C9.013.615 10.163 0 11.853 0c2.061 0 2.955.887 3.339 1.751h3.788zM10.77 3.52a.486.486 0 01-.487-.48c0-.266.219-.481.487-.481h2.162c.269 0 .487.215.487.48 0 .266-.218.481-.487.481H10.77z" fill="#5CB615" fill-rule="nonzero"/></svg>
